inst/assets/svg/wi-wind-beaufort-2.svg

<?xml version="1.0" encoding="UTF-8"?>
<svg xmlns="http://www.w3.org/2000/svg" xmlns:xlink="http://www.w3.org/1999/xlink" width="30pt" height="30pt" viewBox="0 0 30 30" version="1.1">
<g id="surface1051">
<path style=" stroke:none;fill-rule:nonzero;fill:rgb(0%,0%,0%);fill-opacity:1;" d="M 4.941406 13.5 C 4.941406 13.679688 5 13.808594 5.109375 13.898438 C 5.230469 14.011719 5.371094 14.070313 5.53125 14.070313 L 15.929688 14.070313 C 16.101563 14.070313 16.261719 14.128906 16.390625 14.261719 C 16.519531 14.378906 16.589844 14.539063 16.589844 14.71875 C 16.589844 14.898438 16.519531 15.058594 16.390625 15.191406 C 16.261719 15.320313 16.109375 15.390625 15.929688 15.390625 C 15.75 15.390625 15.589844 15.320313 15.460938 15.179688 C 15.339844 15.070313 15.199219 15.019531 15.058594 15.019531 C 14.898438 15.019531 14.761719 15.070313 14.648438 15.179688 C 14.539063 15.289063 14.488281 15.421875 14.488281 15.570313 C 14.488281 15.730469 14.550781 15.871094 14.660156 15.980469 C 15.019531 16.339844 15.441406 16.511719 15.929688 16.511719 C 16.421875 16.511719 16.839844 16.339844 17.191406 15.988281 C 17.539063 15.640625 17.710938 15.21875 17.710938 14.71875 C 17.710938 14.230469 17.539063 13.800781 17.191406 13.449219 C 16.839844 13.101563 16.421875 12.921875 15.929688 12.921875 L 5.53125 12.921875 C 5.371094 12.921875 5.230469 12.980469 5.109375 13.089844 C 4.988281 13.210938 4.941406 13.339844 4.941406 13.5 Z M 4.941406 11.480469 C 4.941406 11.648438 5 11.78125 5.109375 11.871094 C 5.230469 11.980469 5.371094 12.03125 5.53125 12.03125 L 19.339844 12.03125 C 19.828125 12.03125 20.261719 11.851563 20.609375 11.511719 C 20.960938 11.160156 21.128906 10.738281 21.128906 10.238281 C 21.128906 9.75 20.960938 9.328125 20.609375 8.980469 C 20.261719 8.628906 19.839844 8.460938 19.339844 8.460938 C 18.851563 8.460938 18.429688 8.628906 18.070313 8.96875 C 17.960938 9.089844 17.910156 9.238281 17.910156 9.390625 C 17.910156 9.550781 17.960938 9.691406 18.070313 9.789063 C 18.179688 9.890625 18.308594 9.941406 18.46875 9.941406 C 18.621094 9.941406 18.761719 9.890625 18.878906 9.78125 C 19 9.660156 19.148438 9.601563 19.339844 9.601563 C 19.511719 9.601563 19.671875 9.660156 19.800781 9.78125 C 19.929688 9.898438 20 10.050781 20 10.230469 C 20 10.410156 19.929688 10.570313 19.800781 10.699219 C 19.671875 10.828125 19.519531 10.898438 19.339844 10.898438 L 5.53125 10.898438 C 5.371094 10.898438 5.230469 10.960938 5.109375 11.070313 C 4.988281 11.179688 4.941406 11.320313 4.941406 11.480469 Z M 17.660156 21.851563 L 24.28125 21.851563 L 24.679688 19.960938 L 21 19.960938 L 21 19.929688 C 21.199219 19.839844 21.488281 19.710938 21.859375 19.558594 C 22.238281 19.410156 22.550781 19.28125 22.808594 19.179688 C 23.070313 19.078125 23.359375 18.929688 23.679688 18.738281 C 24 18.550781 24.25 18.359375 24.449219 18.171875 C 24.640625 17.980469 24.808594 17.730469 24.949219 17.421875 C 25.089844 17.109375 25.160156 16.78125 25.160156 16.421875 C 25.160156 15.859375 25.019531 15.398438 24.730469 15.019531 C 24.441406 14.640625 24.078125 14.371094 23.648438 14.210938 C 23.21875 14.050781 22.730469 13.96875 22.199219 13.96875 C 21.230469 13.96875 20.441406 14.230469 19.820313 14.75 C 19.199219 15.269531 18.839844 16.039063 18.71875 17.058594 L 20.808594 17.058594 C 20.808594 16.691406 20.921875 16.378906 21.128906 16.121094 C 21.351563 15.859375 21.648438 15.738281 22.039063 15.738281 C 22.339844 15.738281 22.558594 15.820313 22.710938 15.980469 C 22.859375 16.140625 22.941406 16.320313 22.941406 16.519531 C 22.941406 16.640625 22.929688 16.75 22.910156 16.839844 C 22.890625 16.929688 22.839844 17.03125 22.761719 17.121094 C 22.679688 17.210938 22.609375 17.28125 22.550781 17.339844 C 22.488281 17.398438 22.378906 17.46875 22.210938 17.570313 C 22.039063 17.660156 21.910156 17.738281 21.808594 17.789063 C 21.710938 17.839844 21.539063 17.921875 21.28125 18.039063 C 20.398438 18.46875 19.851563 18.75 19.640625 18.871094 C 18.839844 19.351563 18.289063 19.941406 17.980469 20.648438 C 17.820313 21.011719 17.710938 21.410156 17.660156 21.851563 Z M 17.660156 21.851563 "/>
</g>
</svg>

<?xml version="1.0" encoding="utf-8"?>
<!-- Generator: Adobe Illustrator 22.0.1, SVG Export Plug-In . SVG Version: 6.00 Build 0)  -->
<svg version="1.1" id="Layer_1" xmlns="http://www.w3.org/2000/svg" xmlns:xlink="http://www.w3.org/1999/xlink" x="0px" y="0px"
	 viewBox="0 0 30 30" style="enable-background:new 0 0 30 30;" xml:space="preserve">
<path d="M4.94,13.5c0,0.18,0.06,0.31,0.17,0.4c0.12,0.11,0.26,0.17,0.42,0.17h10.4c0.17,0,0.33,0.06,0.46,0.19
	c0.13,0.12,0.2,0.28,0.2,0.46s-0.07,0.34-0.2,0.47s-0.28,0.2-0.46,0.2c-0.18,0-0.34-0.07-0.47-0.21c-0.12-0.11-0.26-0.16-0.4-0.16
	c-0.16,0-0.3,0.05-0.41,0.16c-0.11,0.11-0.16,0.24-0.16,0.39c0,0.16,0.06,0.3,0.17,0.41c0.36,0.36,0.78,0.53,1.27,0.53
	s0.91-0.17,1.26-0.52c0.35-0.35,0.52-0.77,0.52-1.27c0-0.49-0.17-0.92-0.52-1.27c-0.35-0.35-0.77-0.53-1.26-0.53H5.53
	c-0.16,0-0.3,0.06-0.42,0.17C4.99,13.21,4.94,13.34,4.94,13.5z M4.94,11.48c0,0.17,0.06,0.3,0.17,0.39
	c0.12,0.11,0.26,0.16,0.42,0.16h13.81c0.49,0,0.92-0.18,1.27-0.52c0.35-0.35,0.52-0.77,0.52-1.27c0-0.49-0.17-0.91-0.52-1.26
	s-0.77-0.52-1.27-0.52c-0.49,0-0.91,0.17-1.27,0.51c-0.11,0.12-0.16,0.27-0.16,0.42c0,0.16,0.05,0.3,0.16,0.4
	c0.11,0.1,0.24,0.15,0.4,0.15c0.15,0,0.29-0.05,0.41-0.16C19,9.66,19.15,9.6,19.34,9.6c0.17,0,0.33,0.06,0.46,0.18
	c0.13,0.12,0.2,0.27,0.2,0.45c0,0.18-0.07,0.34-0.2,0.47c-0.13,0.13-0.28,0.2-0.46,0.2H5.53c-0.16,0-0.3,0.06-0.42,0.17
	C4.99,11.18,4.94,11.32,4.94,11.48z M17.66,21.85h6.62l0.4-1.89H21v-0.03c0.2-0.09,0.49-0.22,0.86-0.37
	c0.38-0.15,0.69-0.28,0.95-0.38s0.55-0.25,0.87-0.44s0.57-0.38,0.77-0.57c0.19-0.19,0.36-0.44,0.5-0.75s0.21-0.64,0.21-1
	c0-0.56-0.14-1.02-0.43-1.4s-0.65-0.65-1.08-0.81c-0.43-0.16-0.92-0.24-1.45-0.24c-0.97,0-1.76,0.26-2.38,0.78
	c-0.62,0.52-0.98,1.29-1.1,2.31h2.09c0-0.37,0.11-0.68,0.32-0.94c0.22-0.26,0.52-0.38,0.91-0.38c0.3,0,0.52,0.08,0.67,0.24
	s0.23,0.34,0.23,0.54c0,0.12-0.01,0.23-0.03,0.32s-0.07,0.19-0.15,0.28s-0.15,0.16-0.21,0.22s-0.17,0.13-0.34,0.23
	c-0.17,0.09-0.3,0.17-0.4,0.22c-0.1,0.05-0.27,0.13-0.53,0.25c-0.88,0.43-1.43,0.71-1.64,0.83c-0.8,0.48-1.35,1.07-1.66,1.78
	C17.82,21.01,17.71,21.41,17.66,21.85z"/>
</svg>
